X: 32021
T: Peerless, The
R: hornpipe
M: 4/4
K: Cmajor
(3GAB|cGEG CGEG|FGDG FGDG|EGcd ecfe|dcBA G^GAB|
cGEG CGEG|FGDG FGDG|EGce dGBd|c/d/c Bd c2:|
Bc|dBGB dg^fg|ecGc eg^fg|^fddc d^fba|ga^fg e^fdB|
cGEG CGEG|FGDG FGDG|EGce dGBd|c/d/c Bd c2:|

